X: 20762
M: 6/8
L: 1/8
K: C
cee edc | gfe edc | Bcd GAB | ceg fed |\
cdc edc | gfe edc | Bcd GAB | c3 z2 H:|
|: g |\
gfd def | gec cBc | dBG GAB | ceg d2g |\
gfe def | gec cBc | dBG GAB | c2e c2 :|
|: E |\


